X:1
T:Title
%%score { 1 | ( 2 3 4 ) }
L:1/8
M:3/4
K:Eb
V:1 treble nm="Grand Piano"
V:2 bass 
V:3 bass 
V:4 bass 
V:1
 z2 z2[Q:1/4=108] G2 | G3 _G =G2 | B3 G E2 | [A,DF]3 [A,DG] [A,DF]2 | [G,E]4 E2 | D3 G B2 | %6
 d3 c B2 | [C_GA]3 [CGc] [CGB]2 | [B,G]4 B2 | B3 c B2 | B3 G B2 | B3 c B2 | B4 B2 | e3 d c2 | %14
 B3 G c2 | [DB]2 [A,DF]2 [A,DG]2 |[M:2/4] [G,E]4 |[M:1/4] z2 |[M:3/4] [EGB]4 [EGB]2 | %19
 [DAB]4 [DAB]2 | [DF]2 [CE]2 [DF]2 | [EG]4 [GB]2 | [=EGB]3 [Gc] [EGB]2 | [GB]2 [GB]2 [FA]2 | %24
 [A,DF]2 [G,_D=E]3 [A,=DF] |[M:2/4] [DB]4 |[M:1/4] z2 |[M:3/4] [EGB]4 [EGB]2 | [DAB]4 [DAB]2 | %29
 [DF]2 [CE]2 [DF]2 | [EG]4 [GB]2 | [EGe]2 [EGd]2 [EGc]2 | [GB]2 [GB]2 [FA]2 | [B,EG]2 [EG]3 F | %34
[M:2/4] E4 |] %35
V:2
 z2 z2 [E,B,E]2 | [E,B,E]3 [E,=A,E] [E,B,E]2 | [E,G,E]3 [E,B,E] [E,G,]2 | B,,3 B,, B,,2 | E,4 E,2 | %5
 D,3 G, B,2 | D3 C B,2 | D,3 D, D,2 | G,4 B,2 | [A,B,D]3 [A,B,D] [A,B,D]2 | %10
 [G,B,E]3 [G,B,E] [G,B,E]2 | [A,B,D]3 [A,B,D] [A,B,D]2 | [G,B,E]4 [G,B,E]2 | %13
 [A,CE]3 [A,CE] [A,E]2 | [G,B,E]3 [G,B,E] [F,=A,E]2 | [B,,A,]2 B,,2 B,,2 |[M:2/4] E,4 | %17
[M:1/4][K:treble] B2 |[M:3/4] z2 B,2[K:bass] z2 | z2 B,2[K:treble][K:bass] z2 | B,,2 B,2 B,,2 | %21
 E,2 B,2 B,,2 | z2 C2 z2 | F,2 C2 F,2 | B,,2 B,,3 B,, |[M:2/4] [B,,A,]4 |[M:1/4][K:treble] B2 | %27
[M:3/4] z2 B,2[K:bass] z2 | z2 B,2[K:treble][K:bass] z2 | B,,2 B,2 B,,2 | E,2 B,2 B,,2 | %31
 E,2 C2 C2 | F,2 C2 C2 | z2 =A,2 z D |[M:2/4] [E,G,]4 |] %35
V:3
 x6 | x6 | x6 | x6 | x6 | x6 | x6 | x6 | x6 | x6 | x6 | x6 | x6 | x6 | x6 | x6 |[M:2/4] x4 | %17
[M:1/4][K:treble] x2 |[M:3/4] E,2 z c[K:bass] B,,2 | F,2 z[K:treble] c[K:bass] B,,2 | x6 | x6 | %22
 C,2 z =E C,2 | x6 | x6 |[M:2/4] x4 |[M:1/4][K:treble] x2 |[M:3/4] E,2 z c[K:bass] B,,2 | %28
 F,2 z[K:treble] c[K:bass] B,,2 | x6 | x6 | x6 | x6 | z2 z2 _A,2 |[M:2/4] x4 |] %35
V:4
 x6 | x6 | x6 | x6 | x6 | x6 | x6 | x6 | x6 | x6 | x6 | x6 | x6 | x6 | x6 | x6 |[M:2/4] x4 | %17
[M:1/4][K:treble] x2 |[M:3/4] x4[K:bass] x2 | x3[K:treble] x[K:bass] x2 | x6 | x6 | x6 | x6 | x6 | %25
[M:2/4] x4 |[M:1/4][K:treble] x2 |[M:3/4] x4[K:bass] x2 | x3[K:treble] x[K:bass] x2 | x6 | x6 | %31
 x6 | x6 | B,,6 |[M:2/4] x4 |] %35

